img/promo/tasks/01.svg

<svg width="54" height="53" viewBox="0 0 54 53" fill="none" xmlns="http://www.w3.org/2000/svg">
<path d="M21.8065 17.5557V11.3335V17.5557ZM34.251 17.5557V11.3335V17.5557ZM20.251 23.7779H35.8065H20.251ZM17.1399 39.3335H38.9176C39.7428 39.3335 40.5341 39.0057 41.1175 38.4223C41.701 37.8388 42.0287 37.0475 42.0287 36.2224V17.5557C42.0287 16.7306 41.701 15.9393 41.1175 15.3558C40.5341 14.7724 39.7428 14.4446 38.9176 14.4446H17.1399C16.3147 14.4446 15.5234 14.7724 14.94 15.3558C14.3565 15.9393 14.0287 16.7306 14.0287 17.5557V36.2224C14.0287 37.0475 14.3565 37.8388 14.94 38.4223C15.5234 39.0057 16.3147 39.3335 17.1399 39.3335Z" stroke="#DABA69" stroke-width="3" stroke-linecap="round" stroke-linejoin="round"/>
</svg>

<svg xmlns="http://www.w3.org/2000/svg" width="54" height="53" fill="none"><path stroke="#DABA69" stroke-linecap="round" stroke-linejoin="round" stroke-width="3" d="M21.806 17.556v-6.223 6.223Zm12.445 0v-6.223 6.223Zm-14 6.222h15.555-15.555ZM17.14 39.334h21.778a3.111 3.111 0 0 0 3.11-3.112V17.556a3.111 3.111 0 0 0-3.11-3.111H17.14a3.111 3.111 0 0 0-3.111 3.11v18.667a3.111 3.111 0 0 0 3.11 3.111Z"/></svg>
